X:1
T:Title
%%score { ( 1 3 ) | ( 2 4 ) }
L:1/8
Q:1/4=100
M:4/4
K:Bb
V:1 treble nm="Grand Piano"
V:3 treble 
V:2 bass 
V:4 bass 
V:1
 [DF]2 [DF]2 [DG][DF][B,D][CE] | [DF]2 [EG]2 [DF]>[DF] [DG][DF] | A2 A2- AFGF | %3
w: N.~B.~Herrell * * * * *|||
 [DB]3 [DB]- [DB]2 z2 | [DF]2 [DF]2 [EG][DF][B,D][CE] | [DF]2 [DG]2 A>A A[FB] | %6
w: |||
 [=Ec]2 [Ec]2- [Ec][Ec][Ed][Ec] |[M:13/16] [Ec]-<[Ec][EF]/-[EF]/-[EF]/-[EF]/-[EF]/-[EF]-<[EF] | %8
w: ||
[M:3/8] [DF][DF][B,D] |[M:4/4] [DF]2 [DF]2- [DF][DB][DB][DG] |[M:5/8] [EA]2 [EA]3 | %11
w: |||
[M:3/8] [EA][EA][EF] |[M:4/4] c4- cFBc | [Fd]4- [Fd][Fd][Fd][Ge] | d2 c2- cccd | %15
w: ||||
 c2 B2- B[GB][FA]G | F4- Fddc | B3- [DB-] [EB-]>[EB-] [DB]2 |] %18
w: |||
V:2
 [B,,B,]2 [B,,B,]2 [B,,B,][B,,F,][B,,F,][B,,F,] | %1
 [B,,B,]2 [B,,B,]2 [B,,B,]>[B,,B,] [B,,B,][B,,B,] | [F,A,E]2 [F,CE]2- [F,CE][F,A,E][F,B,E][F,A,E] | %3
 [B,,B,]3 [B,,B,]- [B,,B,]2 z2 | [B,,B,]2 [B,,B,]2 [B,,B,][B,,B,][B,,F,][B,,F,] | %5
 [B,,B,]2 [B,,B,]2 [C,F,C]>[F,CF] [F,CF][D,B,] | [C,G,]2 [C,G,]2- [C,G,][C,B,][C,B,][C,B,] | %7
[M:13/16] [F,A,]-<[F,A,][F,C]/-[F,C]/-[F,C]/-[F,C]/-[F,C]/-[F,C]-<[F,C] | %8
[M:3/8] [B,,B,][B,,B,][B,,F,] |[M:4/4] [B,,B,]2 [B,,B,]2- [B,,B,][B,,B,][B,,B,][B,,B,] | %10
[M:5/8] [C,A,]2 [C,A,]3 |[M:3/8] [F,,F,][F,,F,][F,,F,] | %12
[M:4/4] [F,A,E]4- [F,A,E][F,A,E][F,B,D][F,A,E] | [B,,B,]4- [B,,B,][B,,B,][B,,B,][B,,B,] | %14
 [F,B,F]2 [F,A,E]2- [F,A,E][F,A,E][F,A,E][F,B,F] | [^F,A,E]2 [G,B,D]2- [G,B,D][E,B,][E,B,][E,B,E] | %16
 [F,B,D]4- [F,B,D][F,B,F][F,B,F][F,A,E] | z2 z B, G,>G, F,2 |] %18
V:3
 x8 | x8 | x8 | x8 | x8 | x8 | x8 |[M:13/16] x13/2 |[M:3/8] x3 |[M:4/4] x8 |[M:5/8] x5 | %11
[M:3/8] x3 |[M:4/4] x8 | x8 | x8 | x8 | x8 | [B,D]4 z4 |] %18
V:4
 x8 | x8 | x8 | x8 | x8 | x8 | x8 |[M:13/16] x13/2 |[M:3/8] x3 |[M:4/4] x8 |[M:5/8] x5 | %11
[M:3/8] x3 |[M:4/4] x8 | x8 | x8 | x8 | x8 | B,,8 |] %18

